Newaita-dark/actions/22/media-view-subtitles.svg

<svg height="22" viewBox="0 0 22 22" width="22" xmlns="http://www.w3.org/2000/svg"><g fill="#e0e0e0"><path d="m15.007812 14.726562h4.546876c.253906 0 .457031.203126.457031.453126v.910156c0 .25-.203125.453125-.457031.453125h-4.546876c-.25 0-.453124-.203125-.453124-.453125v-.910156c0-.25.203124-.453126.453124-.453126zm0 0"/><path d="m2.273438 18.363281h8.1875c.25 0 .453124.203125.453124.457031v.90625c0 .253907-.203124.457032-.453124.457032h-8.1875c-.25 0-.453126-.203125-.453126-.457032v-.90625c0-.253906.203126-.457031.453126-.457031zm0 0"/><path d="m3.636719 1.992188c-1.007813 0-1.816407.808593-1.816407 1.816406v9.097656h1.816407v-8.1875c0-.503906.40625-.910156.910156-.910156h12.734375c.503906 0 .910156.40625.910156.910156v8.1875h1.820313v-9.097656c0-1.007813-.8125-1.816406-1.820313-1.816406zm0 0"/><path d="m2.273438 14.726562h2.730468c.25 0 .453125.203126.453125.453126v.910156c0 .25-.203125.453125-.453125.453125h-2.730468c-.25 0-.453126-.203125-.453126-.453125v-.910156c0-.25.203126-.453126.453126-.453126zm0 0"/><path d="m7.277344 14.726562h5.457031c.25 0 .453125.203126.453125.453126v.910156c0 .25-.203125.453125-.453125.453125h-5.457031c-.25 0-.457032-.203125-.457032-.453125v-.910156c0-.25.207032-.453126.457032-.453126zm0 0"/><path d="m12.734375 18.363281h2.730469c.25 0 .453125.203125.453125.457031v.90625c0 .253907-.203125.457032-.453125.457032h-2.730469c-.25 0-.453125-.203125-.453125-.457032v-.90625c0-.253906.203125-.457031.453125-.457031zm0 0"/><path d="m17.738281 18.363281h1.816407c.253906 0 .457031.203125.457031.457031v.90625c0 .253907-.203125.457032-.457031.457032h-1.816407c-.253906 0-.457031-.203125-.457031-.457032v-.90625c0-.253906.203125-.457031.457031-.457031zm0 0"/></g></svg>

<?xml version="1.0" encoding="UTF-8"?>
<svg xmlns="http://www.w3.org/2000/svg" xmlns:xlink="http://www.w3.org/1999/xlink" width="22px" height="22px" viewBox="0 0 22 22" version="1.1">
<g id="surface1">
<path style=" stroke:none;fill-rule:nonzero;fill:rgb(87.843138%,87.843138%,87.843138%);fill-opacity:1;" d="M 15.007812 14.726562 L 19.554688 14.726562 C 19.808594 14.726562 20.011719 14.929688 20.011719 15.179688 L 20.011719 16.089844 C 20.011719 16.339844 19.808594 16.542969 19.554688 16.542969 L 15.007812 16.542969 C 14.757812 16.542969 14.554688 16.339844 14.554688 16.089844 L 14.554688 15.179688 C 14.554688 14.929688 14.757812 14.726562 15.007812 14.726562 Z M 15.007812 14.726562 "/>
<path style=" stroke:none;fill-rule:nonzero;fill:rgb(87.843138%,87.843138%,87.843138%);fill-opacity:1;" d="M 2.273438 18.363281 L 10.460938 18.363281 C 10.710938 18.363281 10.914062 18.566406 10.914062 18.820312 L 10.914062 19.726562 C 10.914062 19.980469 10.710938 20.183594 10.460938 20.183594 L 2.273438 20.183594 C 2.023438 20.183594 1.820312 19.980469 1.820312 19.726562 L 1.820312 18.820312 C 1.820312 18.566406 2.023438 18.363281 2.273438 18.363281 Z M 2.273438 18.363281 "/>
<path style=" stroke:none;fill-rule:nonzero;fill:rgb(87.843138%,87.843138%,87.843138%);fill-opacity:1;" d="M 3.636719 1.992188 C 2.628906 1.992188 1.820312 2.800781 1.820312 3.808594 L 1.820312 12.90625 L 3.636719 12.90625 L 3.636719 4.71875 C 3.636719 4.214844 4.042969 3.808594 4.546875 3.808594 L 17.28125 3.808594 C 17.785156 3.808594 18.191406 4.214844 18.191406 4.71875 L 18.191406 12.90625 L 20.011719 12.90625 L 20.011719 3.808594 C 20.011719 2.800781 19.199219 1.992188 18.191406 1.992188 Z M 3.636719 1.992188 "/>
<path style=" stroke:none;fill-rule:nonzero;fill:rgb(87.843138%,87.843138%,87.843138%);fill-opacity:1;" d="M 2.273438 14.726562 L 5.003906 14.726562 C 5.253906 14.726562 5.457031 14.929688 5.457031 15.179688 L 5.457031 16.089844 C 5.457031 16.339844 5.253906 16.542969 5.003906 16.542969 L 2.273438 16.542969 C 2.023438 16.542969 1.820312 16.339844 1.820312 16.089844 L 1.820312 15.179688 C 1.820312 14.929688 2.023438 14.726562 2.273438 14.726562 Z M 2.273438 14.726562 "/>
<path style=" stroke:none;fill-rule:nonzero;fill:rgb(87.843138%,87.843138%,87.843138%);fill-opacity:1;" d="M 7.277344 14.726562 L 12.734375 14.726562 C 12.984375 14.726562 13.1875 14.929688 13.1875 15.179688 L 13.1875 16.089844 C 13.1875 16.339844 12.984375 16.542969 12.734375 16.542969 L 7.277344 16.542969 C 7.027344 16.542969 6.820312 16.339844 6.820312 16.089844 L 6.820312 15.179688 C 6.820312 14.929688 7.027344 14.726562 7.277344 14.726562 Z M 7.277344 14.726562 "/>
<path style=" stroke:none;fill-rule:nonzero;fill:rgb(87.843138%,87.843138%,87.843138%);fill-opacity:1;" d="M 12.734375 18.363281 L 15.464844 18.363281 C 15.714844 18.363281 15.917969 18.566406 15.917969 18.820312 L 15.917969 19.726562 C 15.917969 19.980469 15.714844 20.183594 15.464844 20.183594 L 12.734375 20.183594 C 12.484375 20.183594 12.28125 19.980469 12.28125 19.726562 L 12.28125 18.820312 C 12.28125 18.566406 12.484375 18.363281 12.734375 18.363281 Z M 12.734375 18.363281 "/>
<path style=" stroke:none;fill-rule:nonzero;fill:rgb(87.843138%,87.843138%,87.843138%);fill-opacity:1;" d="M 17.738281 18.363281 L 19.554688 18.363281 C 19.808594 18.363281 20.011719 18.566406 20.011719 18.820312 L 20.011719 19.726562 C 20.011719 19.980469 19.808594 20.183594 19.554688 20.183594 L 17.738281 20.183594 C 17.484375 20.183594 17.28125 19.980469 17.28125 19.726562 L 17.28125 18.820312 C 17.28125 18.566406 17.484375 18.363281 17.738281 18.363281 Z M 17.738281 18.363281 "/>
</g>
</svg>
